X: 3323
T: Belle Mere's
R: waltz
M: 3/4
K: Fmajor
F>D|C3 D F2|F3 G A2|f3 g a2|g4 f>e|d2 f2 F2|A2 c>A G>F|G3 A G>F|
D4 F>D|C3 D F2|F3 G A2|f3 g a2|g4 f>e|d2 f2 F2|c2 C3 A|(F6|F4):|
|:f>g|a>g f2|e2 c2 F2|d3 f d2|c2 F2 F2|d3 f d2|c2 F2 A2|G3 A G>F|
[1 D4 f>g|a3 g f2|e2 c2 F2|d3 f d2|c2 F2 F2|d2 f2 F2|c2 C3 A|(F6|F4):|
[2 D4 F>D|C3 D F2|F3 G A2|f3 g a2|g4 fe|d2 f2 F2|c2 C3 A|(F6|F4)||

